X:1
T: The Whale's Moo
C:Muriel A Johnstone
R:Reel
%Q: 232
K:A
M:4/4
L:1/8
|:CE EF AE FA|cB Bc AB ce|f3e af ec|BA cB AF E2|
CE EF AE FA|BA Bc AB ce|f3e af ec|BA cB AB ce|
aA2a gA2g|fA2f eA Bc|dc BA BE GB|AB ce f3g|
aA2a gA2g|fA2f ef ce|f3e af ec|1BA cB A2 E2:|2BA cB A4||
